X:196
T:Lady Caroline Stanhope's birthday
M:C |
L:1/8
B:Thompson's Compleat Collection of 200 Favourite Country Dances, vol. 2 (London, 1765)
Z:Transcribed and edited by Flynn Titford-Mock, 2007
Z:abc's:AK/Fiddler's Companion
K:E
E2 GEBE c2 | Bdec BAGF | E2 GEBE c2 | Bc/d/ eA GF E2 :|
|: B2 dBfd a2 | gf/e/ de fedc | B2 dBfd a2 | gfed e2E2 :|

